source/img/sprite/1.svg

<svg width="261" height="271" viewBox="0 0 261 271" fill="none" xmlns="http://www.w3.org/2000/svg">
<path d="M37.2135 60.6368L24.2858 48.4397L28.5582 43.9114C30.0381 42.3428 31.4625 41.4379 32.8314 41.1966C34.1944 40.9497 35.4559 41.3736 36.6161 42.4682C37.2495 43.0658 37.6553 43.7563 37.8335 44.5398C38.0058 45.3177 37.9307 46.1029 37.6084 46.8952C38.3996 46.3886 39.2255 46.1832 40.0861 46.2791C40.9522 46.3691 41.7493 46.7575 42.4774 47.4444C43.7204 48.6172 44.2874 49.9018 44.1783 51.2981C44.0693 52.6945 43.3281 54.1322 41.9549 55.6114L37.2135 60.6368ZM34.0974 52.662L37.5868 55.9542L39.7397 53.6724C40.3317 53.0449 40.6445 52.417 40.678 51.7885C40.7112 51.1485 40.4644 50.58 39.9376 50.083C38.7538 48.966 37.5749 49.0118 36.4011 50.2203L34.0974 52.662ZM32.2151 50.8861L34.0748 48.9149C35.3189 47.5489 35.417 46.3717 34.3693 45.3832C33.7833 44.8303 33.2011 44.6054 32.6227 44.7086C32.0439 44.8003 31.4082 45.2131 30.7157 45.9471L28.9565 47.8116L32.2151 50.8861Z" />
<path d="M53.8764 44.571C53.5477 44.4325 53.2036 44.206 52.8441 43.8915C52.8016 45.1702 52.2567 46.2489 51.2094 47.1277C50.2182 47.9595 49.1547 48.3632 48.0188 48.339C46.8892 48.3095 45.9582 47.8584 45.2259 46.9856C44.3261 45.9134 44.0315 44.7583 44.3419 43.5204C44.6586 42.2773 45.5655 41.0223 47.0627 39.7553L48.3064 38.7117L47.8199 38.132C47.4275 37.6644 46.9921 37.3924 46.5136 37.3159C46.0413 37.2341 45.5464 37.4103 45.029 37.8445C44.5739 38.2264 44.307 38.6363 44.2283 39.0742C44.1558 39.5069 44.2791 39.9133 44.5982 40.2936L41.8957 42.5613C41.404 41.9753 41.1297 41.2812 41.0728 40.4791C41.0158 39.677 41.2001 38.8584 41.6255 38.0234C42.0457 37.1821 42.6672 36.4162 43.4901 35.7257C44.7369 34.6795 45.9891 34.1652 47.2468 34.1828C48.5056 34.1889 49.611 34.7592 50.563 35.8938L54.2431 40.2794C55.055 41.2342 55.7984 41.848 56.4735 42.1208L56.6069 42.2798L53.8764 44.571ZM50.0644 44.5668C50.4633 44.232 50.7579 43.8361 50.9481 43.3791C51.133 42.9158 51.181 42.4666 51.0919 42.0313L49.6325 40.292L48.6226 41.1395C47.2698 42.2746 46.9421 43.3464 47.6395 44.3547L47.7635 44.5215C48.046 44.8582 48.3972 45.0362 48.8172 45.0556C49.2372 45.075 49.6529 44.9121 50.0644 44.5668Z" />
<path d="M60.1584 23.9132L67.4921 34.8981L64.5581 36.8569L58.8104 28.2477L56.2215 29.9761L58.3026 33.489C59.394 35.3729 59.9175 36.9266 59.8732 38.1499C59.8289 39.3733 59.2246 40.3883 58.0605 41.1948L57.0656 41.859L55.4423 39.4936L55.7875 39.2191C56.2883 38.826 56.4662 38.2571 56.3213 37.5124C56.1763 36.7677 55.6666 35.6744 54.7922 34.2327L51.8842 29.4372L60.1584 23.9132Z"/>
<path d="M73.0835 31.8539L69.9838 33.5638L63.6041 21.9987L66.7038 20.2888L73.0835 31.8539ZM61.7715 19.1061C61.516 18.6429 61.4589 18.1772 61.6002 17.7089C61.7487 17.2366 62.0901 16.8531 62.6245 16.5583C63.1518 16.2674 63.6548 16.1851 64.1334 16.3115C64.6121 16.4378 64.9791 16.7326 65.2346 17.1957C65.4941 17.666 65.546 18.1393 65.3904 18.6154C65.242 19.0877 64.9077 19.4673 64.3875 19.7542C63.8673 20.0411 63.3643 20.1234 62.8786 20.001C62.4 19.8747 62.0309 19.5764 61.7715 19.1061Z"/>
<path d="M77.9384 19.1544C77.7466 18.732 77.4578 18.4699 77.0719 18.3681C76.6901 18.2554 76.2435 18.3152 75.7323 18.5474C75.2062 18.7863 74.8269 19.0926 74.5944 19.4663C74.3659 19.8292 74.3425 20.2108 74.5242 20.6109L71.312 22.0695C70.8174 20.9802 70.8673 19.8895 71.4618 18.7973C72.0562 17.7051 73.0574 16.8394 74.4653 16.2001C76.0139 15.4968 77.3671 15.2488 78.5248 15.456C79.6899 15.6599 80.5265 16.3212 81.0345 17.4401C81.2768 17.9736 81.3375 18.5404 81.2167 19.1405C81.1 19.7297 80.8095 20.2907 80.3453 20.8232C81.9348 20.6824 83.0425 21.3011 83.6683 22.6793C84.1696 23.7834 84.0958 24.8805 83.4468 25.9707C82.8019 27.0501 81.6939 27.9464 80.123 28.6597C78.6633 29.3226 77.3081 29.5268 76.0575 29.2724C74.8069 29.0181 73.9192 28.3129 73.3943 27.157L76.6064 25.6983C76.7915 26.1059 77.1228 26.3532 77.6003 26.4403C78.0777 26.5273 78.6092 26.4379 79.1946 26.1721C79.7651 25.913 80.1491 25.5778 80.3466 25.1664C80.5441 24.7549 80.5453 24.3343 80.3501 23.9045C80.1112 23.3784 79.7894 23.0732 79.3847 22.9889C78.9766 22.8971 78.4687 22.9892 77.8611 23.2651L76.1161 24.0575L75.1672 21.9679L77.0234 21.1251C78.0103 20.6412 78.3153 19.9843 77.9384 19.1544Z"/>
<path d="M93.3075 23.2941C93.0519 23.0453 92.814 22.709 92.5938 22.2851C92.0882 23.4603 91.1877 24.2663 89.8921 24.703C88.6659 25.1163 87.5284 25.1047 86.4795 24.6682C85.4384 24.2291 84.7358 23.4697 84.3719 22.3901C83.9248 21.0636 84.0713 19.8806 84.8116 18.841C85.5595 17.7988 86.8614 16.9606 88.7173 16.3264L90.2558 15.8078L90.0141 15.0906C89.8191 14.5122 89.5127 14.1002 89.095 13.8546C88.685 13.6064 88.1599 13.5901 87.5199 13.8059C86.9569 13.9956 86.559 14.2801 86.3261 14.6591C86.1009 15.0356 86.0676 15.4591 86.2261 15.9295L82.8831 17.0564C82.6388 16.3315 82.6363 15.5852 82.8756 14.8175C83.1149 14.0498 83.5848 13.3546 84.2852 12.7321C84.9831 12.1018 85.841 11.6151 86.8589 11.2719C88.4013 10.752 89.7549 10.7294 90.9197 11.2042C92.0896 11.6686 92.9111 12.6026 93.3842 14.0061L95.213 19.4313C95.621 20.6163 96.0897 21.4588 96.6189 21.9588L96.6852 22.1555L93.3075 23.2941ZM89.7591 21.9009C90.2527 21.7346 90.6713 21.4732 91.0149 21.1169C91.3559 20.7529 91.5643 20.352 91.6401 19.9143L90.9148 17.7627L89.6655 18.1838C87.9921 18.7479 87.2963 19.6266 87.5783 20.8197L87.633 21.0202C87.7734 21.4367 88.0356 21.7305 88.4196 21.9016C88.8036 22.0727 89.2501 22.0725 89.7591 21.9009Z"/>
</svg>

<svg width="261" height="271" fill="none" xmlns="http://www.w3.org/2000/svg"><path d="M37.214 60.637L24.286 48.44l4.272-4.529c1.48-1.568 2.904-2.473 4.273-2.714 1.363-.247 2.625.177 3.785 1.271.633.598 1.04 1.288 1.218 2.072.172.778.097 1.563-.226 2.355.792-.506 1.617-.712 2.478-.616.866.09 1.663.478 2.391 1.165 1.243 1.173 1.81 2.458 1.701 3.854-.109 1.396-.85 2.834-2.223 4.313l-4.741 5.026zm-3.117-7.975l3.49 3.292 2.153-2.282c.592-.627.904-1.255.938-1.883.033-.64-.214-1.209-.74-1.706-1.184-1.117-2.363-1.071-3.537.137l-2.304 2.442zm-1.882-1.776l1.86-1.971c1.244-1.366 1.342-2.543.294-3.532-.586-.553-1.168-.778-1.746-.674-.58.091-1.215.504-1.907 1.238l-1.76 1.865 3.26 3.074zm21.661-6.315c-.328-.139-.672-.365-1.032-.68-.042 1.28-.587 2.358-1.635 3.237-.99.831-2.054 1.235-3.19 1.211-1.13-.03-2.06-.48-2.793-1.353-.9-1.073-1.194-2.228-.884-3.466.317-1.243 1.224-2.498 2.72-3.765l1.244-1.043-.486-.58c-.392-.468-.828-.74-1.306-.816-.473-.082-.968.094-1.485.528-.455.382-.722.792-.8 1.23-.073.433.05.84.37 1.22l-2.703 2.267c-.492-.586-.766-1.28-.823-2.082-.057-.802.127-1.62.553-2.456.42-.84 1.041-1.607 1.864-2.297 1.247-1.047 2.5-1.56 3.757-1.543 1.259.006 2.364.576 3.316 1.71l3.68 4.386c.812.955 1.555 1.569 2.23 1.842l.134.159-2.73 2.291zm-3.812-.004c.4-.335.694-.73.884-1.188.185-.463.233-.912.144-1.348l-1.46-1.739-1.01.847c-1.352 1.136-1.68 2.207-.983 3.216l.124.167c.283.336.634.514 1.054.534.42.019.836-.144 1.247-.49zm10.094-20.654l7.334 10.985-2.934 1.959-5.748-8.61-2.589 1.73 2.082 3.512c1.091 1.884 1.614 3.438 1.57 4.66-.044 1.224-.648 2.24-1.813 3.046l-.994.664-1.624-2.365.346-.275c.5-.393.678-.962.533-1.707-.145-.744-.654-1.838-1.529-3.28l-2.908-4.795 8.274-5.524zm12.926 7.941l-3.1 1.71-6.38-11.565 3.1-1.71 6.38 11.565zM61.77 19.106c-.255-.463-.312-.929-.17-1.397.148-.472.49-.856 1.023-1.15.528-.292 1.03-.374 1.51-.248.478.127.845.422 1.1.885.26.47.312.943.156 1.42-.148.472-.482.851-1.002 1.138-.52.287-1.024.37-1.51.247-.478-.126-.847-.425-1.106-.895zm16.168.048c-.191-.422-.48-.684-.866-.786-.382-.113-.829-.053-1.34.18-.526.238-.905.545-1.138.918-.228.363-.251.745-.07 1.145l-3.212 1.459c-.495-1.09-.445-2.18.15-3.273.594-1.092 1.595-1.958 3.003-2.597 1.549-.703 2.902-.951 4.06-.744 1.165.204 2.001.865 2.51 1.984.242.534.303 1.1.182 1.7-.117.59-.407 1.15-.872 1.683 1.59-.14 2.698.478 3.323 1.856.502 1.104.428 2.202-.221 3.292-.645 1.08-1.753 1.975-3.324 2.689-1.46.663-2.815.867-4.066.612-1.25-.254-2.138-.96-2.663-2.115l3.212-1.459c.186.408.517.655.994.742.478.087 1.01-.002 1.595-.268.57-.259.954-.594 1.152-1.006.197-.411.198-.832.003-1.262-.239-.526-.56-.83-.965-.915-.408-.092-.916 0-1.524.276l-1.745.793-.949-2.09 1.856-.843c.987-.484 1.292-1.14.915-1.97zm15.37 4.14c-.256-.249-.494-.585-.714-1.009-.506 1.175-1.406 1.981-2.702 2.418-1.226.413-2.364.402-3.412-.035-1.042-.439-1.744-1.198-2.108-2.278-.447-1.326-.3-2.51.44-3.549.748-1.042 2.05-1.88 3.905-2.515l1.539-.518-.242-.717c-.195-.579-.501-.99-.919-1.236-.41-.249-.935-.265-1.575-.05-.563.19-.961.475-1.194.854-.225.377-.258.8-.1 1.27l-3.343 1.127c-.244-.725-.247-1.47-.007-2.239.239-.767.709-1.462 1.41-2.085.697-.63 1.555-1.117 2.573-1.46 1.542-.52 2.896-.543 4.06-.068 1.17.465 1.992 1.399 2.465 2.802l1.829 5.425c.408 1.185.877 2.028 1.406 2.528l.066.197-3.377 1.138zm-3.549-1.393a3.08 3.08 0 001.256-.784c.34-.364.55-.765.625-1.203l-.725-2.151-1.25.42c-1.673.565-2.369 1.444-2.087 2.637l.055.2c.14.417.403.71.787.882.384.17.83.17 1.34-.001z"/></svg>
